; HEADER_BLOCK_START
; generated by OrcaSlicer 2.1.0 on 2025-01-29 at 17:00:33
; total layer number: 100
; filament_density: 1.24
; filament_diameter: 1.75
; max_z_height: 20.00
; HEADER_BLOCK_END

; THUMBNAIL_BLOCK_START

;
; THUMBNAIL_BLOCK_END

; THUMBNAIL_BLOCK_START

;
; THUMBNAIL_BLOCK_END

; external perimeters extrusion width = 0.42mm
; perimeters extrusion width = 0.45mm
; infill extrusion width = 0.45mm
; solid infill extrusion width = 0.42mm
; top infill extrusion width = 0.42mm
; first layer extrusion width = 0.50mm

; external perimeters extrusion width = 0.42mm
; perimeters extrusion width = 0.45mm
; infill extrusion width = 0.45mm
; solid infill extrusion width = 0.42mm
; top infill extrusion width = 0.42mm
; first layer extrusion width = 0.50mm

; EXECUTABLE_BLOCK_START
EXCLUDE_OBJECT_DEFINE NAME=кривошип.stl_id_0_copy_0 CENTER=169.768,131.356 POLYGON=[[158.774,141.359],[161.551,118.284],[161.587,118.018],[161.808,116.976],[161.886,116.707],[162.255,115.72],[162.378,115.454],[162.883,114.543],[163.05,114.29],[163.678,113.473],[163.889,113.238],[164.623,112.532],[164.875,112.323],[165.696,111.74],[165.986,111.565],[166.874,111.116],[167.198,110.982],[168.132,110.673],[168.484,110.585],[169.441,110.42],[169.814,110.385],[170.773,110.364],[171.159,110.385],[172.099,110.505],[172.489,110.585],[173.389,110.841],[173.774,110.982],[174.616,111.363],[174.986,111.565],[175.752,112.061],[176.098,112.323],[176.773,112.919],[177.084,113.238],[177.655,113.919],[177.922,114.29],[178.381,115.037],[178.595,115.454],[178.933,116.251],[179.086,116.707],[179.299,117.533],[179.386,118.018],[179.472,118.855],[180.763,141.858],[180.596,143.329],[180.234,144.763],[179.683,146.136],[178.952,147.423],[178.055,148.6],[177.008,149.646],[175.831,150.542],[174.544,151.272],[173.17,151.822],[171.735,152.183],[170.265,152.348],[168.785,152.315],[167.324,152.083],[165.907,151.657],[164.56,151.045],[163.307,150.258],[163.19,150.171],[163.165,150.153],[163.093,150.098],[162.975,150.006],[162.823,149.885],[162.642,149.734],[162.434,149.552],[162.213,149.349],[162.171,149.309],[161.996,149.138],[161.784,148.92],[161.581,148.699],[161.399,148.491],[161.248,148.31],[161.173,148.217],[161.127,148.159],[161.035,148.04],[160.98,147.968],[160.962,147.944],[160.331,147.001],[159.659,145.682],[159.17,144.285],[158.873,142.836],[158.774,141.359]]
EXCLUDE_OBJECT_DEFINE NAME=шатун22.stl_id_1_copy_0 CENTER=138.305,138.541 POLYGON=[[129.355,93.5409],[129.551,91.6801],[130.129,89.9007],[131.064,88.2803],[132.316,86.8899],[133.83,85.7901],[135.539,85.0291],[137.369,84.6401],[139.24,84.6401],[141.071,85.0291],[142.78,85.7901],[144.294,86.8899],[145.545,88.2803],[146.481,89.9007],[147.059,91.6801],[147.255,93.5409],[147.255,183.541],[147.059,185.402],[146.481,187.181],[145.545,188.802],[144.294,190.192],[142.78,191.292],[141.071,192.053],[139.24,192.442],[137.369,192.442],[135.539,192.053],[133.83,191.292],[132.316,190.192],[131.064,188.802],[130.129,187.181],[129.551,185.402],[129.355,183.541],[129.355,93.5409]]
M73 P0 R30
M106 S0
M106 P2 S0
;TYPE:Custom
M140 S0
M104 S0 
START_PRINT EXTRUDER_TEMP=220 BED_TEMP=60
G90
G21
M83 ; use relative distances for extrusion
; filament start gcode
M106 S0
M106 P2 S0
;LAYER_CHANGE
;Z:0.2
;HEIGHT:0.2
;BEFORE_LAYER_CHANGE
;0.2
G92 E0

G1 E-.6 F2400
;_SET_FAN_SPEED_CHANGING_LAYER
SET_VELOCITY_LIMIT ACCEL=500 ACCEL_TO_DECEL=250
SET_VELOCITY_LIMIT SQUARE_CORNER_VELOCITY=9
EXCLUDE_OBJECT_START NAME=кривошип.stl_id_0_copy_0
G1 Z.2 F30000
G1 X176.165 Y138.971
G1 Z.2
G1 E.6 F2400
;TYPE:Inner wall
;WIDTH:0.499999
G1 F3600
G1 X175.693 Y138.025 E.03938
G1 X175.444 Y137.586 E.0188
G1 X174.71 Y136.653 E.04423
G1 X173.73 Y135.804 E.04829
G1 X172.701 Y135.21 E.04423
G1 X172.13 Y134.996 E.02273
G1 X172.4 Y134.54 E.01971
G1 X172.542 Y134.157 E.01523
G1 X172.648 Y133.559 E.02263
G1 X172.648 Y133.161 E.01481
G1 X172.543 Y132.563 E.02263
G1 X172.407 Y132.19 E.01478
G1 X172.103 Y131.664 E.02263
G1 X171.848 Y131.36 E.01478
G1 X171.383 Y130.969 E.02263
G1 X171.039 Y130.771 E.01478
G1 X170.468 Y130.563 E.02263
G1 X170.078 Y130.494 E.01478
G1 X169.535 Y130.494 E.02021
G1 X169.079 Y130.563 E.01716
G1 X168.544 Y130.758 E.02122
G1 X168.165 Y130.969 E.01616
G1 X167.7 Y131.36 E.02263
G1 X167.444 Y131.664 E.01478
G1 X167.141 Y132.19 E.02263
G1 X167.005 Y132.563 E.01478
G1 X166.899 Y133.161 E.02263
G1 X166.9 Y133.559 E.01482
G1 X167.006 Y134.157 E.02263
G1 X167.148 Y134.541 E.01527
G1 X167.408 Y134.978 E.01891
G1 X166.275 Y135.516 E.04672
G1 X165.232 Y136.284 E.04823
G1 X164.413 Y137.144 E.04423
G1 X163.669 Y138.341 E.0525
G1 X163.411 Y138.996 E.02624
G1 X163.042 Y138.774 E.01603
G1 X162.491 Y138.572 E.02186
G1 X162.078 Y138.494 E.01568
G1 X161.47 Y138.494 E.02263
G1 X161.079 Y138.563 E.01479
G1 X160.402 Y138.833 E.02716
G1 X162.85 Y118.488 E.76321
G1 X163.079 Y117.324 E.04421
G1 X163.461 Y116.251 E.04239
G1 X163.997 Y115.248 E.04239
G1 X164.676 Y114.334 E.04239
G1 X165.482 Y113.531 E.04239
G1 X166.398 Y112.855 E.04239
G1 X167.404 Y112.323 E.04239
G1 X168.478 Y111.944 E.04239
G1 X169.596 Y111.729 E.04239
G1 X170.733 Y111.681 E.0424
G1 X171.858 Y111.801 E.04216
G1 X172.966 Y112.089 E.04264
G1 X174.013 Y112.535 E.04238
G1 X174.983 Y113.131 E.04239
G1 X175.854 Y113.863 E.04239
G1 X176.607 Y114.717 E.04239
G1 X177.226 Y115.672 E.04239
G1 X177.697 Y116.708 E.0424
G1 X178.008 Y117.797 E.04216
G1 X178.163 Y118.978 E.04437
G1 X179.281 Y138.91 E.74358
G1 X179.039 Y138.771 E.0104
G1 X178.468 Y138.563 E.02263
G1 X178.078 Y138.494 E.01478
G1 X177.47 Y138.494 E.02263
G1 X177.076 Y138.564 E.0149
G1 X176.506 Y138.774 E.02263
G1 X176.199 Y138.951 E.0132
G1 X175.905 Y139.86 F30000
G1 F3600
G1 X175.712 Y139.113 E.02873
G1 X175.565 Y138.775 E.01375
G1 X175.085 Y137.869 E.03818
G1 X174.378 Y136.97 E.0426
G1 X173.464 Y136.178 E.04504
G1 X172.926 Y135.868 E.0231
G1 X172.41 Y135.574 E.02215
G1 X171.281 Y135.201 E.04427
G1 X171.51 Y135.035 E.01053
G1 X171.697 Y134.829 E.01036
G1 X171.931 Y134.436 E.01704
G1 X172.092 Y134.077 E.01465
G1 X172.189 Y133.531 E.02066
G1 X172.198 Y133.24 E.01083
G1 X172.093 Y132.642 E.02263
G1 X172.011 Y132.418 E.00887
G1 X171.708 Y131.892 E.02263
G1 X171.555 Y131.71 E.00887
G1 X171.089 Y131.319 E.02263
G1 X170.883 Y131.2 E.00887
G1 X170.312 Y130.993 E.02263
G1 X170.078 Y130.951 E.00887
G1 X169.535 Y130.951 E.02021
G1 X169.236 Y130.993 E.01125
G1 X168.7 Y131.188 E.02122
G1 X168.459 Y131.319 E.01025
G1 X167.993 Y131.71 E.02263
G1 X167.84 Y131.892 E.00887
G1 X167.537 Y132.418 E.02263
G1 X167.455 Y132.642 E.00887
G1 X167.35 Y133.24 E.02263
G1 X167.35 Y133.479 E.00889
G1 X167.456 Y134.077 E.02263
G1 X167.541 Y134.308 E.00916
G1 X167.933 Y134.94 E.02772
G1 X168.315 Y135.235 E.01797
G1 X167.635 Y135.376 E.02586
G1 X166.654 Y135.823 E.04017
G1 X166.292 Y136.066 E.01623
G1 X165.563 Y136.6 E.03364
G1 X164.774 Y137.427 E.0426
G1 X164.094 Y138.509 E.04757
G1 X163.699 Y139.512 E.04016
G1 X163.64 Y139.862 E.01322
G1 X163.556 Y139.742 E.00545
G1 X163.107 Y139.337 E.02252
G1 X162.884 Y139.203 E.00967
G1 X162.334 Y139.001 E.02186
G1 X162.078 Y138.951 E.00971
G1 X161.47 Y138.951 E.02263
G1 X161.236 Y138.993 E.00887
G1 X160.665 Y139.2 E.02263
G1 X160.459 Y139.319 E.00887
G1 X159.993 Y139.71 E.02263
G1 X159.807 Y139.95 E.01134
G1 X162.398 Y118.417 E.80783
G1 X162.637 Y117.202 E.04611
G1 X163.042 Y116.066 E.04492
G1 X163.61 Y115.002 E.04492
G1 X164.329 Y114.034 E.04492
G1 X165.184 Y113.183 E.04492
G1 X166.155 Y112.467 E.04492
G1 X167.22 Y111.903 E.04492
G1 X168.358 Y111.502 E.04492
G1 X169.542 Y111.274 E.04492
G1 X170.748 Y111.223 E.04493
G1 X171.94 Y111.35 E.04468
G1 X173.114 Y111.655 E.04517
G1 X174.224 Y112.127 E.04492
G1 X175.251 Y112.759 E.04492
G1 X176.174 Y113.535 E.04492
G1 X176.972 Y114.44 E.04492
G1 X177.628 Y115.452 E.04492
G1 X178.127 Y116.55 E.04493
G1 X178.457 Y117.704 E.04468
G1 X178.618 Y118.935 E.04627
G1 X179.803 Y140.058 E.78797
G1 X179.555 Y139.71 E.01593
G1 X179.089 Y139.319 E.02263
G1 X178.883 Y139.2 E.00887
G1 X178.312 Y138.993 E.02263
G1 X178.078 Y138.951 E.00887
G1 X177.47 Y138.951 E.02263
G1 X177.234 Y138.993 E.00894
G1 X176.664 Y139.203 E.02263
G1 X176.443 Y139.335 E.00957
G1 X175.992 Y139.738 E.02253
G1 X175.928 Y139.827 E.0041
;WIPE_START
G1 X175.712 Y139.113 E-.22389
G1 X175.565 Y138.775 E-.11073
G1 X175.15 Y137.993 E-.26537
;WIPE_END
G1 Z.4 F30000
G1 X170.743 Y135.025 Z.4
G1 Z.2
G1 E.6 F2400
;TYPE:Outer wall
;WIDTH:0.549417
G1 F3600
G1 X170.665 Y135.082 E.004
G1 X170.089 Y135.158 E.02397
;WIDTH:0.502891
G1 X169.501 Y135.171 E.02203
;WIDTH:0.518306
G1 X168.944 Y135.077 E.02188
G1 X168.793 Y135.017 E.00632
;WIDTH:0.499999
G1 X168.307 Y134.664 E.02236
G1 X167.934 Y134.074 E.02598
G1 X167.8 Y133.399 E.02564
G1 X167.905 Y132.722 E.02555
G1 X168.236 Y132.121 E.02554
G1 X168.752 Y131.67 E.02554
G1 X169.346 Y131.439 E.02372
G1 X169.535 Y131.408 E.00713
G1 X170.081 Y131.408 E.02033
G1 X170.727 Y131.63 E.02543
G1 X171.261 Y132.06 E.02554
G1 X171.615 Y132.647 E.02554
G1 X171.748 Y133.32 E.02554
G1 X171.642 Y133.997 E.02555
G1 X171.304 Y134.596 E.02561
G1 X170.909 Y134.906 E.01869
;WIDTH:0.549417
G1 X170.776 Y135.002 E.00678
;WIPE_START
G1 X170.665 Y135.082 E-.04108
G1 X170.089 Y135.158 E-.17422
G1 X169.501 Y135.171 E-.17636
G1 X168.944 Y135.077 E-.16947
G1 X168.824 Y135.029 E-.03887
;WIPE_END
G1 Z.4 F30000
G1 X163.411 Y143.722 Z.4
G1 Z.2
G1 E.6 F2400
;TYPE:Inner wall
;WIDTH:0.499999
G1 F3600
G1 X163.669 Y144.378 E.02624
G1 X163.926 Y144.817 E.01895
G1 X164.488 Y145.654 E.03756
G1 X165.326 Y146.522 E.04493
G1 X166.464 Y147.312 E.0516
G1 X167.408 Y147.741 E.03861
G1 X167.148 Y148.178 E.01891
G1 X167.024 Y148.479 E.01214
G1 X166.92 Y149.043 E.02137
G1 X166.899 Y149.558 E.01918
G1 X167.005 Y150.156 E.02263
G1 X167.229 Y150.682 E.02131
G1 X166.37 Y150.424 E.03342
G1 X165.184 Y149.885 E.04851
G1 X164.082 Y149.193 E.04848
G1 X163.069 Y148.345 E.04919
G1 X162.202 Y147.395 E.04791
G1 X161.471 Y146.34 E.0478
G1 X160.87 Y145.164 E.04921
G1 X160.436 Y143.916 E.04919
G1 X161.079 Y144.156 E.02557
G1 X161.47 Y144.225 E.01479
G1 X162.078 Y144.225 E.02263
G1 X162.472 Y144.154 E.01492
G1 X163.042 Y143.945 E.02263
G1 X163.376 Y143.743 E.01454
G1 X163.631 Y142.87 F30000
G1 F3600
G1 X163.699 Y143.207 E.01282
G1 X164.094 Y144.21 E.04016
G1 X164.31 Y144.57 E.01563
G1 X164.819 Y145.339 E.03434
G1 X165.619 Y146.172 E.04302
G1 X166.654 Y146.896 E.04703
G1 X167.781 Y147.39 E.04586
G1 X168.298 Y147.496 E.01964
G1 X168.038 Y147.685 E.01194
G1 X167.822 Y147.938 E.01242
G1 X167.466 Y148.592 E.02771
G1 X167.37 Y149.123 E.02011
G1 X167.35 Y149.478 E.01326
G1 X167.415 Y149.85 E.01405
G1 X167.537 Y150.3 E.01738
G1 X167.833 Y150.814 E.0221
G1 X167.993 Y151.009 E.00938
G1 X168.453 Y151.394 E.02233
G1 X167.515 Y151.246 E.03535
G1 X166.209 Y150.853 E.05081
G1 X164.967 Y150.289 E.05081
G1 X163.812 Y149.563 E.05079
G1 X162.753 Y148.676 E.05149
G1 X161.844 Y147.68 E.05019
G1 X161.078 Y146.575 E.05008
G1 X160.449 Y145.344 E.05151
G1 X159.998 Y144.057 E.05079
G1 X159.718 Y142.614 E.05475
G1 X159.993 Y143.009 E.01794
G1 X160.459 Y143.399 E.02263
G1 X160.665 Y143.518 E.00887
G1 X161.236 Y143.726 E.02263
G1 X161.49 Y143.768 E.00959
G1 X162.245 Y143.747 E.02812
G1 X162.698 Y143.584 E.01794
G1 X163.107 Y143.382 E.01699
G1 X163.602 Y142.898 E.02579
;WIPE_START
G1 X163.699 Y143.207 E-.09724
G1 X164.094 Y144.21 E-.3235
G1 X164.31 Y144.57 E-.12593
G1 X164.408 Y144.718 E-.05334
;WIPE_END
G1 Z.4 F30000
G1 X163.263 Y140.11 Z.4
G1 Z.2
G1 E.6 F2400
;TYPE:Outer wall
;WIDTH:0.503368
G1 F3600
G1 X163.531 Y140.715 E.02484
G1 X163.593 Y141.338 E.02348
;WIDTH:0.504774
G1 X163.552 Y141.889 E.0208
G1 X163.335 Y142.488 E.02398
;WIDTH:0.499999
G1 X163.216 Y142.668 E.00799
G1 X162.801 Y143.042 E.02084
G1 X162.176 Y143.289 E.02503
G1 X161.49 Y143.311 E.02557
G1 X160.821 Y143.089 E.02624
G1 X160.287 Y142.659 E.02554
;WIDTH:0.534265
G1 X160.095 Y142.374 E.01376
;WIDTH:0.56853
G1 X159.903 Y142.089 E.01472
;WIDTH:0.615368
G1 X159.848 Y142.007 E.00458
G1 X159.759 Y141.406 E.02835
;WIDTH:0.595197
G1 X159.858 Y140.713 E.03151
G1 X160.047 Y140.417 E.01581
;WIDTH:0.547598
G1 X160.236 Y140.121 E.01445
;WIDTH:0.499999
G1 X160.752 Y139.67 E.02554
G1 X161.392 Y139.422 E.02554
G1 X162.078 Y139.408 E.02554
G1 X162.727 Y139.632 E.02557
G1 X163.243 Y140.076 E.02536
;WIPE_START
G1 X163.531 Y140.715 E-.21039
G1 X163.593 Y141.338 E-.18775
G1 X163.552 Y141.889 E-.16583
G1 X163.511 Y142.002 E-.03604
;WIPE_END
G1 Z.4 F30000
G1 X172.13 Y147.723 Z.4
G1 Z.2
G1 E.6 F2400
;TYPE:Inner wall
G1 F3600
G1 X172.701 Y147.509 E.02273
G1 X173.812 Y146.843 E.04823
G1 X174.777 Y145.98 E.04823
G1 X175.444 Y145.132 E.04017
G1 X175.693 Y144.694 E.01879
G1 X176.141 Y143.773 E.03813
G1 X176.506 Y143.945 E.01505
G1 X177.076 Y144.155 E.02263
G1 X177.47 Y144.225 E.0149
G1 X178.078 Y144.225 E.02263
G1 X178.468 Y144.156 E.01478
G1 X179.092 Y143.917 E.02487
G1 X178.982 Y144.356 E.01683
G1 X178.496 Y145.564 E.04851
G1 X177.853 Y146.697 E.04851
G1 X177.063 Y147.733 E.04851
G1 X176.142 Y148.654 E.04851
G1 X175.105 Y149.442 E.04851
G1 X173.972 Y150.085 E.04851
G1 X172.956 Y150.492 E.04077
G1 X172.319 Y150.681 E.02475
G1 X172.407 Y150.529 E.00654
G1 X172.543 Y150.156 E.01478
G1 X172.648 Y149.558 E.02263
G1 X172.648 Y149.16 E.01481
G1 X172.542 Y148.562 E.02263
G1 X172.4 Y148.178 E.01524
G1 X172.151 Y147.758 E.01822
G1 X171.281 Y147.518 F30000
G1 F3600
G1 X172.473 Y147.113 E.0469
G1 X173.031 Y146.791 E.02401
G1 X173.513 Y146.498 E.021
G1 X174.418 Y145.698 E.045
G1 X175.085 Y144.85 E.04017
G1 X175.287 Y144.484 E.01556
G1 X175.715 Y143.598 E.03667
G1 X175.91 Y142.884 E.02755
G1 X175.992 Y142.981 E.00474
G1 X176.443 Y143.384 E.02253
G1 X176.664 Y143.516 E.00957
G1 X177.234 Y143.726 E.02263
G1 X177.47 Y143.768 E.00894
G1 X178.078 Y143.768 E.02263
G1 X178.312 Y143.726 E.00887
G1 X178.883 Y143.518 E.02263
G1 X179.089 Y143.399 E.00887
G1 X179.555 Y143.009 E.02263
G1 X179.811 Y142.648 E.01649
G1 X179.751 Y143.175 E.01975
G1 X179.417 Y144.497 E.05081
G1 X178.909 Y145.763 E.05081
G1 X178.235 Y146.949 E.05081
G1 X177.408 Y148.034 E.05081
G1 X176.443 Y148.999 E.05081
G1 X175.358 Y149.825 E.05081
G1 X174.171 Y150.498 E.05081
G1 X172.905 Y151.005 E.05081
G1 X171.707 Y151.307 E.04602
G1 X171.098 Y151.392 E.02291
G1 X171.463 Y151.085 E.01779
G1 X171.708 Y150.827 E.01325
G1 X172.011 Y150.3 E.02263
G1 X172.093 Y150.077 E.00887
G1 X172.208 Y149.326 E.02827
G1 X172.113 Y148.761 E.02137
G1 X172.007 Y148.412 E.01359
G1 X171.697 Y147.89 E.0226
G1 X171.51 Y147.684 E.01037
G1 X171.313 Y147.542 E.00904
G1 X170.707 Y147.668 F30000
;TYPE:Outer wall
;WIDTH:0.549458
G1 F3600
G1 X171.242 Y148.054 E.0272
;WIDTH:0.499999
G1 X171.537 Y148.516 E.02044
G1 X171.642 Y148.721 E.00858
G1 X171.748 Y149.32 E.02263
G1 X171.643 Y149.997 E.02555
G1 X171.312 Y150.598 E.02554
G1 X170.795 Y151.049 E.02554
;WIDTH:0.533369
G1 X170.481 Y151.189 E.01373
;WIDTH:0.566738
G1 X170.167 Y151.328 E.01467
;WIDTH:0.588232
G1 X170.078 Y151.355 E.00415
G1 X169.47 Y151.351 E.02699
;WIDTH:0.595869
G1 X169.376 Y151.342 E.00428
G1 X169.098 Y151.215 E.01373
;WIDTH:0.547934
G1 X168.821 Y151.089 E.01254
;WIDTH:0.499999
G1 X168.287 Y150.659 E.02554
G1 X167.932 Y150.072 E.02554
G1 X167.8 Y149.399 E.02554
G1 X167.882 Y148.858 E.02038
G1 X167.934 Y148.645 E.0082
G1 X168.244 Y148.123 E.0226
G1 X168.718 Y147.756 E.02232
;WIDTH:0.510421
G1 X168.882 Y147.658 E.00726
G1 X169.407 Y147.557 E.02038
;WIDTH:0.507538
G1 X170.054 Y147.558 E.02451
;WIDTH:0.549458
G1 X170.665 Y147.637 E.02541
G1 X170.675 Y147.645 E.00052
;WIPE_START
G1 X171.242 Y148.054 E-.20973
G1 X171.537 Y148.516 E-.16463
G1 X171.642 Y148.721 E-.06909
G1 X171.733 Y149.235 E-.15655
;WIPE_END
G1 Z.4 F30000
G1 X175.512 Y140.165 Z.4
G1 Z.2
G1 E.6 F2400
;WIDTH:0.499999
G1 F3600
G1 X175.531 Y140.237 E.00277
;WIDTH:0.503062
G1 X175.514 Y141.322 E.04067
;WIDTH:0.506803
G1 X175.533 Y142.474 E.04355
;WIDTH:0.499999
G1 X175.274 Y143.476 E.03853
G1 X174.881 Y144.275 E.0332
G1 X174.725 Y144.567 E.01232
G1 X174.059 Y145.415 E.04017
G1 X173.214 Y146.153 E.04178
G1 X172.244 Y146.717 E.04178
G1 X171.179 Y147.076 E.04187
;WIDTH:0.549458
G1 X170.712 Y147.135 E.01945
